src/assets/filled/HomeHashtag.svg

<svg width="24" height="24" viewBox="0 0 24 24"  xmlns="http://www.w3.org/2000/svg">
<path d="M12.7 16.8798H13.4C14.55 16.8798 15.49 15.9398 15.49 14.7898V14.0898H12.7V16.8798Z" />
<path d="M8.51001 14.7898C8.51001 15.9398 9.45001 16.8798 10.6 16.8798H11.3V14.0898H8.51001V14.7898Z" />
<path d="M8.51001 12.0002V12.7002H11.3V9.91016H10.6C9.45001 9.91016 8.51001 10.8502 8.51001 12.0002Z" />
<path d="M20.03 6.81969L14.28 2.78969C12.71 1.68969 10.31 1.74969 8.8 2.91969L3.79 6.82969C2.78 7.60969 2 9.20969 2 10.4697V17.3697C2 19.9197 4.07 21.9997 6.61 21.9997H17.38C19.92 21.9997 21.99 19.9297 21.99 17.3797V10.5997C22 9.24969 21.13 7.58969 20.03 6.81969ZM16.88 14.7897C16.88 16.7097 15.31 18.2797 13.39 18.2797H10.6C8.68 18.2797 7.11 16.7197 7.11 14.7897V11.9997C7.11 10.0797 8.68 8.50969 10.6 8.50969H13.39C15.31 8.50969 16.88 10.0697 16.88 11.9997V14.7897Z" />
<path d="M13.4 9.91016H12.7V12.7002H15.49V12.0002C15.49 10.8502 14.55 9.91016 13.4 9.91016Z" />
</svg>

<?xml version="1.0" encoding="UTF-8"?>
<svg width="24" height="24" viewBox="0 0 24 24" xmlns="http://www.w3.org/2000/svg">
 <path d="m12.7 16.88h0.7c1.15 0 2.09-0.94 2.09-2.09v-0.7h-2.79v2.79z"/>
 <path d="m8.51 14.79c0 1.15 0.94 2.09 2.09 2.09h0.7v-2.79h-2.79v0.7z"/>
 <path d="m8.51 12v0.7h2.79v-2.79h-0.7c-1.15 0-2.09 0.94004-2.09 2.09z"/>
 <path d="m20.03 6.8197-5.75-4.03c-1.57-1.1-3.97-1.04-5.48 0.13l-5.01 3.91c-1.01 0.78-1.79 2.38-1.79 3.64v6.9c0 2.55 2.07 4.63 4.61 4.63h10.77c2.54 0 4.61-2.07 4.61-4.62v-6.78c0.01-1.35-0.86-3.01-1.96-3.78zm-3.15 7.97c0 1.92-1.57 3.49-3.49 3.49h-2.79c-1.92 0-3.49-1.56-3.49-3.49v-2.79c0-1.92 1.57-3.49 3.49-3.49h2.79c1.92 0 3.49 1.56 3.49 3.49v2.79z"/>
 <path d="m13.4 9.9102h-0.7v2.79h2.79v-0.7c0-1.15-0.94-2.09-2.09-2.09z"/>
</svg>
